!!!!SEGMENT: pl-wumfc--r282--003-001_paderewski-ignacy-jan--exercises-3-exercise-1.krn
!!!cenid: 18xx:3196
!!!COM: Paderewski, Ignacy Jan
!!!COM-rismID: pe30029943
!!!CDT: 1860/11/18-1941/06/29
!!!CNT: Polish
!!!GTL: [Exercises 3]
!!!OTL: [Exercise] 1
!!!OMV: 001
!!!PDT:
!!!AGN:
!!!YEC: Copyright 2022 Narodowy Instytut Fryderyka Chopina (https://polishscores.org)
!!!YEM: License CC-BY-4.0 (https://creativecommons.org/licenses/by/4.0)
!!!SMS-siglum: PL-Wumfc
!!!SMS-shelfmark: R282
!!!SMS-shelfwork: 003-001 G
!!!SMS-variant:
!!!SMS-altvar:
!!!NIFC-rismSourceID: 1001158933
!!!NIFC-rismChildID: 1001158933
!!!NIFC-islandoraID: pl-wumfc:419
!!!URL-pdf-islandora: https://repozytorium.nifc.pl/islandora/object/pl-wumfc%3A419/datastream/PDF/view
!!!URL-scan: https://polish.musicsources.pl/pl/lokalizacje/galeria/rekopisy/4702 @EN{Scan on Polish Music Sources Website} @PL{Skany w portalu Dziedzictwo Muzyki Polskiej w otwartym dostępie}
!!!IIIF:
!!!ONB-nifc: UWAGA: druga grupa ćwiczeń od skanu 0011, prawa strona, 3 system. Nr 003 i 004 nienumerowane – skan 0012, lewa strona. Nr 010 nienumerowany – skan 0014, 3 pierwsze systemy
!!!OMD:
!!!AIN: 2 piano
!!!key: C
**kern	**kern
*part2	*part1
*staff2	*staff1
*I"[Pianoforte]	*I"[Pianoforte]
*I'	*I'
*mI"Pianoforte	*mI"Pianoforte
*mI'pf	*mI'pf
*Ipiano	*Ipiano
*ICklav	*ICklav
*IGsolo	*IGsolo
*clefF4	*clefG2
*k[]	*k[]
*C:	*C:
*M4/4	*M4/4
*met(c)	*met(c)
*mmet(c)	*mmet(c)
!LO:TUP:a:problem=klamra łukowa	!
6C\	2cc\
6D\	.
[>6E\	.
=1	=1
*Xtuplet	*
6E\]	2b\
6D\	.
[>6G\	.
6G\]	2a\
6F\	.
[>6A\	.
=2	=2
6A\]	2b\
6G\	.
[>6e\	.
6e\]	2g\
6E\	.
[>6G\	.
=3	=3
6G\]	2a\
6F\	.
[6D\	.
6D\]	2b\
6G\	.
6D\	.
=4	=4
2C;>\	2cc;>\
6AA\	2cc\
6c\	.
[>6B\	.
=5	=5
6B\]	2cc\
6A\	.
[>6E\	.
6E\]	2g/
6e\	.
[>6c\	.
=6	=6
6c\]	2g/
6B\	.
[>6G\	.
6G\]	2e/
6A\	.
[>6G\	.
=7	=7
6G\]	2g/
6E\	.
[>6e\	.
6e\]	2f/
6d\	.
6A\	.
=8	=8
2c;>\	2e;>/
!!LO:LB:g=original
=-	=-
6E\	2e/
6D\	.
[>6C\	.
=9	=9
6C\]	2a/
6AA\	.
[>6C\	.
6C\]	2a/
6D\	.
[>6F\	.
=10	=10
6F\]	2g/
6E\	.
[>6G\	.
6G\]	2b/
6D\	.
[>6E\	.
=11	=11
6E\]	2cc/
6C\	.
[>6c\	.
6c\]	2a/
6d\	.
6e\	.
=12	=12
2e;>\	2g;>/
6c\	2cc/
6d\	.
[>6e\	.
=13	=13
6e\]	2b/
6d\	.
[>6G\	.
6G\]	2a/
6F\	.
[>6c\	.
=14	=14
6c\]	2g/
6B\	.
[>6E\	.
6E\]	2e/
6F\	.
[6A\	.
=15	=15
6A\]	2f/
6D\	.
[>6F\	.
6F\]	2d/
6G\	.
6BB\	.
=16	=16
!LO:SIC:s=1C;	!
1C;<	1c;>
!!LO:LB:g=original
==	==
*-	*-
!!LO:MO:ori
!!!system-decoration: [(s1,s2)]
!!LO:MO:mod
!!!RDF**kern: < = below
!!!RDF**kern: > = above
!!!filter-modern: sic -sq | shed -k -e "s/:TUP:/:tup:/L" | shed -k -e "s/LO:N:vis/LO:n:vis:/L" | shed -e "s/TX(.*):t=P:/tx$1:t=P:/LG" | autostem -r | modori -m
!!!ENC: Filip Voros
!!!END: 2021-11-13
!!!EED: Marta Chmielewska
!!!EEV: 2021-11-17
!!!ENC-modern: Andrzej Borzym
!!!END-modern: 2022-08-29
